packages/kaspersky-hexa-ui-icons/src/iconsSVGs/16/CompGroup.svg

<svg width="16" height="16" viewBox="0 0 16 16" fill="none" xmlns="http://www.w3.org/2000/svg">
<path fill-rule="evenodd" clip-rule="evenodd" d="M5.3501 2.66611C5.3501 1.75484 6.08883 1.01611 7.0001 1.01611H13.0001C13.9114 1.01611 14.6501 1.75484 14.6501 2.66611V6.66611C14.6501 7.46913 14.0765 8.13817 13.3166 8.28579V11.3321C13.3166 12.2434 12.5779 12.9821 11.6666 12.9821H10.3166V13.6821H10.6666C11.0256 13.6821 11.3166 13.9731 11.3166 14.3321C11.3166 14.6911 11.0256 14.9821 10.6666 14.9821H6.6666C6.30762 14.9821 6.0166 14.6911 6.0166 14.3321C6.0166 13.9731 6.30762 13.6821 6.6666 13.6821H7.0166V12.9821H5.6666C4.75533 12.9821 4.0166 12.2434 4.0166 11.3321V10.3161H3.0001C2.08883 10.3161 1.3501 9.57738 1.3501 8.66611V4.66611C1.3501 3.75484 2.08883 3.01611 3.0001 3.01611H5.3501V2.66611ZM8.3166 12.9821V13.6821H9.0166V12.9821H8.3166ZM11.6666 11.6821C11.8599 11.6821 12.0166 11.5254 12.0166 11.3321V7.33213C12.0166 7.13883 11.8599 6.98213 11.6666 6.98213H5.6666C5.4733 6.98213 5.3166 7.13883 5.3166 7.33213V11.3321C5.3166 11.5254 5.4733 11.6821 5.6666 11.6821H11.6666ZM13.3501 6.66611C13.3501 6.75645 13.3159 6.8388 13.2597 6.90089C13.0701 6.19876 12.4287 5.68213 11.6666 5.68213H10.6501V4.66611C10.6501 3.75484 9.91137 3.01611 9.0001 3.01611H6.6501V2.66611C6.6501 2.47281 6.8068 2.31611 7.0001 2.31611H13.0001C13.1934 2.31611 13.3501 2.47281 13.3501 2.66611V6.66611ZM9.3501 5.68213V4.66611C9.3501 4.47281 9.1934 4.31611 9.0001 4.31611H3.0001C2.8068 4.31611 2.6501 4.47281 2.6501 4.66611V8.66611C2.6501 8.85941 2.8068 9.01611 3.0001 9.01611H4.0166V7.33213C4.0166 6.42086 4.75533 5.68213 5.6666 5.68213H9.3501Z" fill="black"/>
</svg>

<svg xmlns="http://www.w3.org/2000/svg" width="16" height="16" fill="none" viewBox="0 0 16 16"><path fill="#000" fill-rule="evenodd" d="M5.35 2.666c0-.9113.7387-1.65 1.65-1.65h6c.9112 0 1.65.7387 1.65 1.65v4c0 .803-.5737 1.472-1.3335 1.6197v3.0463c0 .9113-.7388 1.65-1.65 1.65h-1.35v.7h.35a.65.65 0 1 1 0 1.3h-4a.65.65 0 1 1 0-1.3h.35v-.7h-1.35c-.9113 0-1.65-.7387-1.65-1.65v-1.016H3c-.9113 0-1.65-.7387-1.65-1.65v-4c0-.9113.7387-1.65 1.65-1.65h2.35zm2.9665 10.316v.7h.7v-.7zm3.35-1.3a.35.35 0 0 0 .35-.35v-4a.35.35 0 0 0-.35-.35h-6a.35.35 0 0 0-.35.35v4a.35.35 0 0 0 .35.35zM13.35 6.666a.35.35 0 0 1-.0904.2348c-.1896-.7022-.8311-1.2188-1.5931-1.2188H10.65V4.666c0-.9113-.7387-1.65-1.65-1.65H6.65v-.35a.35.35 0 0 1 .35-.35h6a.35.35 0 0 1 .35.35zm-4-.984V4.666a.35.35 0 0 0-.35-.35H3a.35.35 0 0 0-.35.35v4a.35.35 0 0 0 .35.35h1.0165V7.332c0-.9113.7387-1.65 1.65-1.65z"/></svg>
